client/public/img/killfeed/frag_grenade_killfeed.svg

<?xml version="1.0" encoding="UTF-8" standalone="no"?>
<svg
   width="30.785706"
   height="16"
   viewBox="0 0 30.785706 16"
   fill="none"
   version="1.1"
   id="svg6"
   xmlns="http://www.w3.org/2000/svg"
   xmlns:svg="http://www.w3.org/2000/svg">
  <defs
     id="defs6" />
  <path
     d="M 21.203838,1.9216386 20.283915,2.3261312 19.950291,3.3359102 19.46769,4.171786 C 19.253781,3.9547808 19.007515,3.7626265 18.730812,3.6028842 18.453788,3.4429497 18.16395,3.3256473 17.868665,3.2488945 L 18.351373,2.4128906 17.094516,1.6866173 19.075649,0 l 1.913426,1.1047508 0.09078,0.2746312 0.151754,0.087646 c 0.03353,-0.057946 0.07807,-0.1087375 0.13125,-0.1494687 0.05308,-0.040774 0.113842,-0.070687 0.178559,-0.088009 0.06472,-0.017322 0.132318,-0.021722 0.198744,-0.012954 0.06643,0.00877 0.130502,0.030532 0.188598,0.064055 0.0581,0.033523 0.10893,0.078152 0.149832,0.1313245 0.04079,0.053173 0.0707,0.1138423 0.0881,0.1785807 0.01741,0.064728 0.02179,0.1322536 0.01314,0.1986794 -0.0088,0.066437 -0.03054,0.1304808 -0.06397,0.1885019 -0.03353,0.058021 -0.07817,0.1088764 -0.13125,0.1496503 -0.05318,0.040774 -0.113949,0.070676 -0.178666,0.087998 -0.06472,0.017322 -0.132211,0.021733 -0.198744,0.012965 -0.06643,-0.00877 -0.130502,-0.030554 -0.188598,-0.064076 -0.05809,-0.033523 -0.108929,-0.07813 -0.149831,-0.1313031 -0.02627,-0.034302 -0.04806,-0.071723 -0.06493,-0.1113327 z"
     fill="#d9d9d9"
     id="path1"
     style="stroke-width:1.06794" />
  <path
     d="m 18.560048,3.8986392 c 0.278092,0.1605647 0.521582,0.3585712 0.729082,0.5823685 0.06578,0.070943 0.12826,0.1450154 0.187317,0.2220352 0.249791,0.3258068 0.433049,0.6977165 0.539202,1.0944772 0.106153,0.3967607 0.133065,0.8105977 0.07935,1.2178989 -0.02702,0.2047346 -0.07422,0.4057955 -0.140541,0.6003419 L 14.643703,4.5495587 c 0.405069,-0.4630583 0.940854,-0.8000892 1.543599,-0.961946 0.49563,-0.1331399 1.012085,-0.1420145 1.503337,-0.030447 0.298062,0.067729 0.590998,0.1807059 0.869409,0.3414735 z"
     fill="#d9d9d9"
     id="path2"
     style="stroke-width:1.06794" />
  <path
     d="m 19.681277,8.2072175 0.04176,-0.072299 c 0.03652,-0.065198 0.07059,-0.1315915 0.102202,-0.1990425 L 14.431076,4.82152 c -0.04315,0.062581 -0.09216,0.1383302 -0.130929,0.2043181 l -0.03407,0.059612 c -0.03588,0.064204 -0.06931,0.1294555 -0.100279,0.1956037 l 5.394159,3.1143449 c 0.04261,-0.061182 0.08309,-0.123945 0.121318,-0.1881816 z"
     fill="#d9d9d9"
     id="path3"
     style="stroke-width:1.06794" />
  <path
     d="m 14.036579,5.6008164 5.311074,3.066309 C 19.212239,8.821966 19.061552,8.963446 18.897624,9.089324 18.571796,9.339532 18.199832,9.523164 17.8032,9.629637 17.406567,9.736111 16.992848,9.763343 16.58575,9.709837 16.178651,9.656337 15.786184,9.523161 15.430667,9.317903 14.712905,8.903244 14.189295,8.220222 13.975173,7.4190649 13.814021,6.8160532 13.837943,6.1832887 14.036583,5.6008134 Z"
     fill="#d9d9d9"
     id="path4"
     style="stroke-width:1.06794" />
  <rect
     x="3.5031345"
     y="4.2617273"
     width="9.8999214"
     height="0.36417785"
     fill="#d9d9d9"
     id="rect4"
     style="stroke-width:1.06794" />
  <rect
     x="0"
     y="5.9700031"
     width="11.53844"
     height="0.36417785"
     fill="#d9d9d9"
     id="rect5"
     style="stroke-width:1.06794" />
  <rect
     x="2.099895"
     y="7.6762061"
     width="10.535986"
     height="0.36417785"
     fill="#d9d9d9"
     id="rect6"
     style="stroke-width:1.06794" />
  <path
     d="M 19.420059,10.794545 C 21.607839,9.192423 22.230448,8.0520887 21.94392,5.512861 L 30.785706,3.1020102 24.441081,7.4210009 30.785706,11.826708 23.669389,11.076268 24.441081,16 Z"
     fill="#d9d9d9"
     id="path6"
     style="stroke-width:1.06794" />
</svg>

<svg xmlns="http://www.w3.org/2000/svg" width="30.786" height="16" fill="none"><path fill="#d9d9d9" d="m21.204 1.922-.92.404-.334 1.01-.482.836a3.47 3.47 0 0 0-1.6-.923l.483-.836-1.256-.726L19.075 0l1.914 1.105.09.274.153.088a.51.51 0 1 1-.028.455M18.56 3.899a3.12 3.12 0 0 1 1.535 3.116 3 3 0 0 1-.14.6L14.643 4.55a3.13 3.13 0 0 1 3.916-.651m1.122 4.308.042-.072q.055-.098.102-.2l-5.394-3.113a4 4 0 0 0-.13.204l-.035.06q-.055.096-.1.195l5.394 3.114q.064-.091.121-.188M14.037 5.6l5.31 3.067a3.13 3.13 0 0 1-2.761 1.043 3.124 3.124 0 0 1-2.55-4.11M3.503 4.262h9.9v.364h-9.9zM0 5.97h11.538v.364H0zm2.1 1.706h10.536v.364H2.1zm17.32 3.119c2.188-1.603 2.81-2.743 2.524-5.282l8.842-2.411-6.345 4.319 6.345 4.406-7.117-.75.772 4.923Z" style="stroke-width:1.06794"/></svg>
